X:78
T:Hare in the Heather (reel), The
T:The Morning Dew 
B:CRE1.198 (Giorria sa bhFraoch)
F:file ID: cre.1/078hare_h
S:Matt Tiernan
M:C
L:1/8
Q:180
R:reel
K:Em
E3B BAFD|EBEB ADFD|E3B BAFD|B^cdB ADFD|
E3B BAFD|EBEB ADFD|E3B BAFD|d^cdB ADFD||
"9"B2eB fBeB|B^cdB ADFA|B2eB fBeB|d^cdB ADFA|
B2eB fBeB|B^cdB ADFA|Bdef gfge|d^cdB ADFA||
"17"B2GB EBEB|B2GB ADFA|B2GA BEGA|d^cdB ADFA|
B2GA BEGA|B2GB ADFA|BAGF GAB^c|d^cdB ADFA||E8||

%%%

